assets/Medium_Symbol_NoPadding.svg

<svg xmlns="http://www.w3.org/2000/svg" viewBox="0 0 1043.63 592.71"><g id="Layer_2" data-name="Layer 2"><g id="Layer_1-2" data-name="Layer 1"><path d="M588.67,296.36c0,163.67-131.78,296.35-294.33,296.35S0,460,0,296.36,131.78,0,294.34,0,588.67,132.69,588.67,296.36"/><path d="M911.56,296.36c0,154.06-65.89,279-147.17,279s-147.17-124.94-147.17-279,65.88-279,147.16-279,147.17,124.9,147.17,279"/><path d="M1043.63,296.36c0,138-23.17,249.94-51.76,249.94s-51.75-111.91-51.75-249.94S963.29,46.42,991.87,46.42s51.76,111.9,51.76,249.94"/></g></g></svg>

<?xml version="1.0" encoding="UTF-8" standalone="no"?>
<!DOCTYPE svg PUBLIC "-//W3C//DTD SVG 1.1//EN" "http://www.w3.org/Graphics/SVG/1.1/DTD/svg11.dtd">
<svg width="100%" height="100%" viewBox="0 0 1044 593" version="1.1" xmlns="http://www.w3.org/2000/svg" xmlns:xlink="http://www.w3.org/1999/xlink" xml:space="preserve" xmlns:serif="http://www.serif.com/" style="fill-rule:evenodd;clip-rule:evenodd;stroke-linejoin:round;stroke-miterlimit:2;">
    <g id="Layer_2">
        <g id="Layer_1-2">
            <path d="M588.67,296.36C588.67,460.03 456.89,592.71 294.34,592.71C131.79,592.71 0,460 0,296.36C0,132.72 131.78,0 294.34,0C456.9,0 588.67,132.69 588.67,296.36" style="fill:rgb(13,17,99);fill-rule:nonzero;"/>
            <path d="M911.56,296.36C911.56,450.42 845.67,575.36 764.39,575.36C683.11,575.36 617.22,450.42 617.22,296.36C617.22,142.3 683.1,17.36 764.38,17.36C845.66,17.36 911.55,142.26 911.55,296.36" style="fill:rgb(13,17,99);fill-rule:nonzero;"/>
            <path d="M1043.63,296.36C1043.63,434.36 1020.46,546.3 991.87,546.3C963.28,546.3 940.12,434.39 940.12,296.36C940.12,158.33 963.29,46.42 991.87,46.42C1020.45,46.42 1043.63,158.32 1043.63,296.36" style="fill:rgb(13,17,99);fill-rule:nonzero;"/>
        </g>
    </g>
</svg>
